!!!!SEGMENT: pl-kk--kk-i-516--001-002_holzbauer-ignaz--motetto-quam-dulce-quam-decorum.krn
!!!cenid: 17xx:1869
!!!COM: Holzbauer, Ignaz
!!!COM-rismID: pe30001549
!!!CDT: 1711/09/18-1783/04/07
!!!CNT: German; Polish
!!!OPR: Motetto
!!!OTL: Quam dulce quam decorum
!!!OMV: 002
!!!PDT:
!!!AGN: Sacred; Motet
!!!YEC: Copyright 2022 Narodowy Instytut Fryderyka Chopina (https://polishscores.org)
!!!YEM: License CC-BY-4.0 (https://creativecommons.org/licenses/by/4.0)
!!!SMS-siglum: PL-Kk
!!!SMS-shelfmark: Kk.I.516
!!!SMS-shelfwork: 001-002 M
!!!SMS-variant:
!!!SMS-altvar:
!!!NIFC-rismSourceID: 1001139107
!!!NIFC-rismChildID: 1001139107
!!!NIFC-islandoraID: pl-kk:14982
!!!URL-pdf-islandora: https://repozytorium.nifc.pl/islandora/object/pl-kk%3A14982/datastream/PDF/view
!!!URL-scan: https://polish.musicsources.pl/pl/lokalizacje/galeria/rekopisy/6126 @EN{Scan on Polish Music Sources Website} @PL{Skany w portalu Dziedzictwo Muzyki Polskiej w otwartym dostępie}
!!!IIIF:
!!!ONB-nifc: UWAGA: części Motetu: 1. Ut dulces noctis (Aria), 2. Quam dulce quam decorum (Chorus)
!!!AIN: 1 alto 3 empty 1 organ 1 soprn 1 tenor 1 viola 2 violn
!!!key:
**kern	**fba	**dynam	**kern	**kern	**dynam	**kern	**dynam	**kern	**text	**dynam	**kern	**text	**dynam	**kern	**text	**dynam	**kern	**text	**dynam	**kern	**kern
*group4	*	*	*group3	*group3	*	*group3	*	*group2	*	*	*group2	*	*	*group2	*	*	*group2	*	*	*group1	*group1
*part10	*	*	*part9	*part8	*	*part7	*	*part6	*	*	*part5	*	*	*part4	*	*	*part3	*	*	*part2	*part1
*staff10	*	*	*staff9	*staff8	*	*staff7	*	*staff6	*	*	*staff5	*	*	*staff4	*	*	*staff3	*	*	*staff2	*staff1
*Iorgan	*	*	*Iviola	*Ivioln	*	*Ivioln	*	*Iempty	*	*	*Itenor	*	*	*Ialto	*	*	*Isoprn	*	*	*Iempty	*Iempty
*I"Organo.	*	*	*I"Alto Viola	*I"Violino 2do	*	*I"Violino I:mo	*	*I"Baſso	*	*	*I"Tenore	*	*	*I"Alto.	*	*	*I"Soprano Concto	*	*	*I"Cornu 2do in B	*I"Cornu 1:mo in B
*I'org	*	*	*I'vla	*I'vl II	*	*I'vl I	*	*I'B	*	*	*I'T	*	*	*I'A	*	*	*I'S	*	*	*I'cor II	*I'cor I
*clefF4	*	*	*clefC3	*clefG2	*	*clefG2	*	*clefF4	*	*	*clefC4	*	*	*clefC3	*	*	*clefC1	*	*	*clefG2	*clefG2
*	*	*	*	*	*	*	*	*	*	*	*	*	*	*	*	*	*	*	*	*ITrd1c2	*ITrd1c2
*k[b-e-]	*	*	*k[b-e-]	*k[b-e-]	*	*k[b-e-]	*	*k[b-e-]	*	*	*k[b-e-]	*	*	*k[b-e-]	*	*	*k[b-e-]	*	*	*k[b-e-]	*k[b-e-]
*B-:	*	*	*B-:	*B-:	*	*B-:	*	*B-:	*	*	*B-:	*	*	*B-:	*	*	*B-:	*	*	*B-:	*B-:
*M4/4	*	*	*M4/4	*M4/4	*	*M4/4	*	*M4/4	*	*	*M4/4	*	*	*M4/4	*	*	*M4/4	*	*	*M4/4	*M4/4
*met(c)	*	*	*met(c)	*met(c)	*	*met(c)	*	*met(c)	*	*	*met(c)	*	*	*met(c)	*	*	*met(c)	*	*	*met(c)	*met(c)
=1	=1	=1	=1	=1	=1	=1	=1	=1	=1	=1	=1	=1	=1	=1	=1	=1	=1	=1	=1	=1	=1
*2\right	*	*	*2\right	*2\right	*	*2\right	*	*2\right	*	*	*2\right	*	*	*2\right	*	*	*2\right	*	*	*2\right	*2\right
!	!	!	!	!	!	!	!	!	!	!	!LO:TX:t=P:problem=oznaczenie metryczne C z kropką	!	!	!LO:TX:t=P:problem=oznaczenie metryczne C z kropką	!	!	!LO:TX:t=P:problem=kolejność znaków b- ee-	!	!	!	!
!LO:TX:a:t=Solo	!	!	!	!LO:TX:t=P:problem=oznaczenie metryczne C z kropką	!	!LO:TX:t=P:problem=oznaczenie metryczne C z kropką	!	!LO:TX:a:t=T&colon;	!	!	!LO:TX:a:t=T&colon;	!	!	!LO:TX:a:t=T&colon;	!	!	!LO:TX:a:t=T	!	!	!	!
!LO:TX:a:B:t=Allo	!	!	!LO:TX:t=P:problem=w źródle występuje tylko "Aria"; brak części "Chorus"	!LO:TX:a:B:t=Allo	!	!LO:TX:a:B:t=Allo	!	!LO:TX:a:B:t=Allo&colon;	!	!	!LO:TX:a:B:t=Allo&colon;	!	!	!LO:TX:a:B:t=Allo&colon;	!	!	!LO:TX:a:B:t=Allo	!	!	!LO:TX:a:B:t=allo	!LO:TX:a:B:t=allo
4BB-/	.	.	1ryy	4B-/	.	4B-/	.	00r	.	.	00r	.	.	00r	.	.	00r	.	.	4B-/	4B-/
!LO:TX:t=P:problem=4,8,16\ left, middle or right&colon; global	!	!	!	!	!	!	!	!	!	!	!	!	!	!	!	!	!	!	!	!	!
8.D\L	.	.	.	8.d/L	.	8.d/L	.	.	.	.	.	.	.	.	.	.	.	.	.	8.d/L	8.d/L
16F\Jk	.	.	.	16f/Jk	.	16f/Jk	.	.	.	.	.	.	.	.	.	.	.	.	.	16f/Jk	16f/Jk
!	!	!	!	!LO:TX:t=P:problem=4,8,16\ left, middle or right&colon; global	!	!LO:TX:t=P:problem=4,8,16\ left, middle or right&colon; global	!	!	!	!	!	!	!	!	!	!	!	!	!	!LO:TX:t=P:problem=4 left or middle&colon; global	!LO:TX:t=P:problem=4 left or middle&colon; global
4B-\	.	.	.	8b-\L	.	8b-\L	.	.	.	.	.	.	.	.	.	.	.	.	.	4b-\	4b-\
.	.	.	.	16dd\L	.	16dd\L	.	.	.	.	.	.	.	.	.	.	.	.	.	.	.
.	.	.	.	16ff\JJ	.	16ff\JJ	.	.	.	.	.	.	.	.	.	.	.	.	.	.	.
8r	.	.	.	16bb-\LL	.	16bb-\LL	.	.	.	.	.	.	.	.	.	.	.	.	.	8r	8r
.	.	.	.	16ff\	.	16ff\	.	.	.	.	.	.	.	.	.	.	.	.	.	.	.
8B-\	.	.	.	16dd\	.	16dd\	.	.	.	.	.	.	.	.	.	.	.	.	.	8B-/	8b-\
.	.	.	.	16b-\JJ	.	16b-\JJ	.	.	.	.	.	.	.	.	.	.	.	.	.	.	.
=2	=2	=2	=2	=2	=2	=2	=2	=2	=2	=2	=2	=2	=2	=2	=2	=2	=2	=2	=2	=2	=2
8E-\L	.	.	1ryy	8b-\L	.	8e-/L 8b- 8gg	.	.	.	.	.	.	.	.	.	.	.	.	.	8B-/L	8b-\L
8B-\J	.	.	.	8dd\J	.	8d/J 8b- 8ff	.	.	.	.	.	.	.	.	.	.	.	.	.	8B-/J	8b-\J
8r	.	.	.	16bb-\LL	.	16bb-\LL	.	.	.	.	.	.	.	.	.	.	.	.	.	8r	8r
.	.	.	.	16ff\	.	16ff\	.	.	.	.	.	.	.	.	.	.	.	.	.	.	.
8B-\	.	.	.	16dd\	.	16dd\	.	.	.	.	.	.	.	.	.	.	.	.	.	8b-\	8dd\
.	.	.	.	16b-\JJ	.	16b-\JJ	.	.	.	.	.	.	.	.	.	.	.	.	.	.	.
8F\L	7	.	.	8cc\L	.	8f/L 8ee-	.	.	.	.	.	.	.	.	.	.	.	.	.	8f/L	8cc\L
8B-\J	.	.	.	8b-\J	.	8f/J 8dd	.	.	.	.	.	.	.	.	.	.	.	.	.	8d/J	8b-\J
!	!	!	!	!	!	!	!LO:DY:b:t=pia	!	!	!	!	!	!	!	!	!	!	!	!	!	!
8r	.	.	.	16ff\LL	.	16ff\LL	p	.	.	.	.	.	.	.	.	.	.	.	.	4r	4r
.	.	.	.	16dd\	.	16dd\	.	.	.	.	.	.	.	.	.	.	.	.	.	.	.
8BB-/	.	.	.	16b-\	.	16b-\	.	.	.	.	.	.	.	.	.	.	.	.	.	.	.
.	.	.	.	16f\JJ	.	16f\JJ	.	.	.	.	.	.	.	.	.	.	.	.	.	.	.
=3	=3	=3	=3	=3	=3	=3	=3	=3	=3	=3	=3	=3	=3	=3	=3	=3	=3	=3	=3	=3	=3
*	*	*	*	*Xtuplet	*	*Xtuplet	*	*	*	*	*	*	*	*	*	*	*	*	*	*	*
!	!	!	!	!LO:TX:t=P:global:problem=klamra łukowa, kropka zamiast numeru	!	!LO:TX:t=P:problem=klamra łukowa	!	!	!	!	!	!	!	!	!	!	!	!	!	!	!
4C/	.	.	1ryy	24e-/LL	.	24e-/LL	.	.	.	.	.	.	.	.	.	.	.	.	.	4r	4r
.	.	.	.	24d/	.	24d/	.	.	.	.	.	.	.	.	.	.	.	.	.	.	.
.	.	.	.	24c/	.	24c/	.	.	.	.	.	.	.	.	.	.	.	.	.	.	.
.	.	.	.	16c'/	.	16c'/	.	.	.	.	.	.	.	.	.	.	.	.	.	.	.
.	.	.	.	16c'/JJ	.	16c'/JJ	.	.	.	.	.	.	.	.	.	.	.	.	.	.	.
8r	.	.	.	16ee-/LL	.	16ee-\LL	.	.	.	.	.	.	.	.	.	.	.	.	.	4f/	4cc\
.	.	.	.	16cc/	.	16cc\	.	.	.	.	.	.	.	.	.	.	.	.	.	.	.
8FF/	7	.	.	16a/	.	16a\	.	.	.	.	.	.	.	.	.	.	.	.	.	.	.
.	.	.	.	16e-/JJ	.	16e-\JJ	.	.	.	.	.	.	.	.	.	.	.	.	.	.	.
!	!	!	!	!LO:LB:g=original	!	!LO:LB:g=original	!	!	!	!	!	!	!	!	!	!	!	!	!	!	!
!	!	!	!	!	!	!LO:TX:t=P:global:problem=klamra łukowa, kropka zamiast numeru	!	!	!	!	!	!	!	!	!	!	!	!	!	!	!
4BB-/	.	.	.	24d/LL	.	24d/LL	.	.	.	.	.	.	.	.	.	.	.	.	.	4b-\	4dd\
.	.	.	.	24c/	.	24c/	.	.	.	.	.	.	.	.	.	.	.	.	.	.	.
.	.	.	.	24B-/	.	24B-/	.	.	.	.	.	.	.	.	.	.	.	.	.	.	.
.	.	.	.	16B-'/	.	16B-'/	.	.	.	.	.	.	.	.	.	.	.	.	.	.	.
.	.	.	.	16B-'/JJ	.	16B-'/JJ	.	.	.	.	.	.	.	.	.	.	.	.	.	.	.
!	!	!	!	!	!	!	!LO:DY:b:t=for	!	!	!	!	!	!	!	!	!	!	!	!	!	!
8r	.	.	.	16b-\LL	.	16b-\LL	f	.	.	.	.	.	.	.	.	.	.	.	.	4r	4r
.	.	.	.	16dd\	.	16dd\	.	.	.	.	.	.	.	.	.	.	.	.	.	.	.
8D\	6	.	.	16ff\	.	16ff\	.	.	.	.	.	.	.	.	.	.	.	.	.	.	.
.	.	.	.	16bb-\JJ	.	16bb-\JJ	.	.	.	.	.	.	.	.	.	.	.	.	.	.	.
!	!	!	!	!	!	!	!	!	!	!	!	!	!	!	!	!	!	!	!	!LO:LB:g=original	!LO:LB:g=original
=4	=4	=4	=4	=4	=4	=4	=4	=4	=4	=4	=4	=4	=4	=4	=4	=4	=4	=4	=4	=4	=4
!LO:TX:t=P:problem=mixed beam	!	!	!	!	!	!	!	!	!	!	!	!	!	!	!	!	!	!	!	!	!
8E-\L	6 5	.	1ryy	16cc\LL	.	16cc\LL	.	.	.	.	.	.	.	.	.	.	.	.	.	4r	4r
.	.	.	.	16gg\	.	16gg\	.	.	.	.	.	.	.	.	.	.	.	.	.	.	.
8E-\	.	.	.	16ff\	.	16ff\	.	.	.	.	.	.	.	.	.	.	.	.	.	.	.
.	.	.	.	16ee-\JJ	.	16ee-\JJ	.	.	.	.	.	.	.	.	.	.	.	.	.	.	.
!	!	!	!	!	!	!	!	!	!	!	!	!	!	!	!	!	!	!	!	!LO:TX:t=P:problem=mixed beam	!
8F\	6 4	.	.	16dd\LL	.	16dd\LL	.	.	.	.	.	.	.	.	.	.	.	.	.	8b-\L	8dd\L
.	.	.	.	16ff\	.	16ff\	.	.	.	.	.	.	.	.	.	.	.	.	.	.	.
8FF/J	5 3	.	.	16a\	.	16a\	.	.	.	.	.	.	.	.	.	.	.	.	.	8f/J	8cc\J
.	.	.	.	16cc\JJ	.	16cc\JJ	.	.	.	.	.	.	.	.	.	.	.	.	.	.	.
!LO:TX:t=P:problem=mixed beam	!	!	!	!	!	!	!	!	!	!	!	!	!	!	!	!	!	!	!	!	!
8GG/L	3	.	.	16b-\LL	.	16b-\LL	.	.	.	.	.	.	.	.	.	.	.	.	.	4d/	4b-\
.	.	.	.	(32cc\L	.	(32cc\L	.	.	.	.	.	.	.	.	.	.	.	.	.	.	.
.	.	.	.	32dd\	.	32dd\	.	.	.	.	.	.	.	.	.	.	.	.	.	.	.
8G\J	.	.	.	32ee-\	.	32ee-\	.	.	.	.	.	.	.	.	.	.	.	.	.	.	.
.	.	.	.	32ff\	.	32ff\	.	.	.	.	.	.	.	.	.	.	.	.	.	.	.
.	.	.	.	32gg\	.	32gg\	.	.	.	.	.	.	.	.	.	.	.	.	.	.	.
.	.	.	.	32aa\JJJ)	.	32aa\JJJ)	.	.	.	.	.	.	.	.	.	.	.	.	.	.	.
!	!	!	!	!	!	!LO:TX:t=P:problem=mixed beam	!	!	!	!	!	!	!	!	!	!	!	!	!	!	!
8r	.	.	.	16bb-\LL	.	16bb-\LL	.	.	.	.	.	.	.	.	.	.	.	.	.	4r	4r
.	.	.	.	16b-\	.	16b-/	.	.	.	.	.	.	.	.	.	.	.	.	.	.	.
8D\	6	.	.	16bb-\	.	16bb-\	.	.	.	.	.	.	.	.	.	.	.	.	.	.	.
.	.	.	.	16bb-\JJ	.	16bb-\JJ	.	.	.	.	.	.	.	.	.	.	.	.	.	.	.
!LO:LB:g=original	!	!	!	!	!	!	!	!	!	!	!	!	!	!	!	!	!	!	!	!	!
=5	=5	=5	=5	=5	=5	=5	=5	=5	=5	=5	=5	=5	=5	=5	=5	=5	=5	=5	=5	=5	=5
!LO:TX:t=P:problem=mixed beam	!	!	!	!	!	!	!	!	!	!	!	!	!	!	!	!	!	!	!	!	!
8E-\L	.	.	1ryy	16cc\LL	.	16cc\LL	.	2r	.	.	2r	.	.	2r	.	.	2r	.	.	4r	4r
.	.	.	.	16gg\	.	16gg\	.	.	.	.	.	.	.	.	.	.	.	.	.	.	.
8E-\	6 5	.	.	16ff\	.	16ff\	.	.	.	.	.	.	.	.	.	.	.	.	.	.	.
.	.	.	.	16ee-\JJ	.	16ee-\JJ	.	.	.	.	.	.	.	.	.	.	.	.	.	.	.
!	!	!	!	!	!	!	!	!	!	!	!	!	!	!	!	!	!	!	!	!LO:TX:t=P:problem=mixed beam	!
8F\	6 4	.	.	16dd\LL	.	16dd\LL	.	.	.	.	.	.	.	.	.	.	.	.	.	8b-\L	8dd\L
.	.	.	.	16ff\	.	16ff\	.	.	.	.	.	.	.	.	.	.	.	.	.	.	.
8FF/J	5 3	.	.	16a\	.	16a\	.	.	.	.	.	.	.	.	.	.	.	.	.	8f/J	8cc\J
.	.	.	.	16cc\JJ	.	16cc\JJ	.	.	.	.	.	.	.	.	.	.	.	.	.	.	.
4BB-/	.	.	.	16b-/LL	.	16b-/LL	.	4r	.	.	4r	.	.	4r	.	.	4r	.	.	4d/	4b-\
.	.	.	.	16b-/	.	16b-/	.	.	.	.	.	.	.	.	.	.	.	.	.	.	.
.	.	.	.	16f/	.	16f/	.	.	.	.	.	.	.	.	.	.	.	.	.	.	.
.	.	.	.	16d/JJ	.	16d/JJ	.	.	.	.	.	.	.	.	.	.	.	.	.	.	.
!	!	!	!	!LO:TX:t=P:problem=mixed beam	!	!LO:TX:t=P:problem=mixed beam	!	!	!	!	!	!	!	!	!	!	!	!	!	!	!
8r	.	.	.	16B-/LL	.	16B-/LL	.	8r	.	.	8r	.	.	8r	.	.	8r	.	.	8r	8r
.	.	.	.	16b-\	.	16b-\	.	.	.	.	.	.	.	.	.	.	.	.	.	.	.
!LO:TX:a:t=Tutti	!	!	!	!	!	!	!	!	!	!	!	!	!	!	!	!	!LO:TX:t=P:problem=4,8\ left or middle&colon; global	!	!	!	!
8B-\	.	.	.	16dd\	.	16dd\	.	8B-\	Quam	.	8d\	Quam	.	8f\	Quam	.	8b-\	Quam	.	8B-/	8b-\
.	.	.	.	16ff\JJ	.	16ff\JJ	.	.	.	.	.	.	.	.	.	.	.	.	.	.	.
!	!	!	!	!	!	!LO:LB:g=original	!	!	!	!	!	!	!	!	!	!	!	!	!	!	!
=6	=6	=6	=6	=6	=6	=6	=6	=6	=6	=6	=6	=6	=6	=6	=6	=6	=6	=6	=6	=6	=6
8E-\L	.	.	1ryy	16gg\LL	.	16gg\LL	.	8E-\	dul-	.	8e-\	dul-	.	8e-\	dul-	.	8gg\	dul-	.	8B-/L	8b-\L
.	.	.	.	16ee-\J	.	16ee-\J	.	.	.	.	.	.	.	.	.	.	.	.	.	.	.
8B-\J	.	.	.	8ff\J	.	8ff\J	.	8B-\	-ce	.	8d\	-ce	.	8f\	-ce	.	8ff\	-ce	.	8B-/J	8b-\J
!LO:TX:t=P:problem=mixed beam	!	!	!	!	!	!	!	!	!	!	!	!	!	!	!	!	!	!	!	!	!
8BB-/L	.	.	.	16bb-\LL	.	16bb-\LL	.	8BB-/	quam	.	8d\	quam	.	8f\	quam	.	8ff\	quam	.	8r	8r
.	.	.	.	16ff\	.	16ff\	.	.	.	.	.	.	.	.	.	.	.	.	.	.	.
8B-\J	.	.	.	16dd\	.	16dd\	.	8B-\	de-	.	8d\	de-	.	8f\	de-	.	8ff\	de-	.	8b-\	8dd\
.	.	.	.	16b-\JJ	.	16b-\JJ	.	.	.	.	.	.	.	.	.	.	.	.	.	.	.
!LO:TX:t=P:problem=mixed beam	!	!	!	!	!	!	!	!	!	!	!	!	!	!	!	!	!	!	!	!	!
8F\L	7	.	.	16ee-\LL	.	16ee-\LL	.	8F\	-co-	.	8c\	-co-	.	8f\	-co-	.	8ee-\	-co-	.	8f/L	8cc\L
.	.	.	.	16cc\J	.	16cc\J	.	.	.	.	.	.	.	.	.	.	.	.	.	.	.
8B-\	.	.	.	8dd\J	.	8dd\J	.	8B-\	-rum	.	8B-\	-rum	.	8f\	-rum	.	8dd\	-rum	.	8d/J	8b-\J
!	!	!	!	!	!	!	!	!LO:LB:g=original	!	!	!	!	!	!LO:LB:g=original	!	!	!	!	!	!	!
8BB-/	.	.	.	16ff\LL	.	16ff\LL	.	8r	.	.	8r	.	.	8r	.	.	8r	.	.	8r	8r
.	.	.	.	16dd\	.	16dd\	.	.	.	.	.	.	.	.	.	.	.	.	.	.	.
8D/J	6	.	.	16cc\	.	16cc\	.	8D\	est	.	8B-\	est	.	8f\	est	.	8ff\	est	.	8d/	8b-\
.	.	.	.	16b-\JJ	.	16b-\JJ	.	.	.	.	.	.	.	.	.	.	.	.	.	.	.
!	!	!	!	!	!	!	!	!	!	!	!LO:LB:g=original	!	!	!	!	!	!	!	!	!	!
=7	=7	=7	=7	=7	=7	=7	=7	=7	=7	=7	=7	=7	=7	=7	=7	=7	=7	=7	=7	=7	=7
8E-\L	4 2	.	1ryy	16a/LL	.	16a/LL	.	8E-\	lu-	.	8c\	lu-	.	8f\	lu-	.	8a\	lu-	.	8f\L	8cc\L
.	.	.	.	16f/	.	16f/	.	.	.	.	.	.	.	.	.	.	.	.	.	.	.
8D\J	6	.	.	16b-/	.	16b-/	.	8D\	-men	.	8d\	-men	.	8f\	-men	.	8b-\	-men	.	8b-\	8dd\
.	.	.	.	16f/JJ	.	16f/JJ	.	.	.	.	.	.	.	.	.	.	.	.	.	.	.
!	!	!	!	!	!	!	!	!	!	!	!	!	!	!	!	!	!LO:LB:g=original	!	!	!	!
8AA/L	6 5	.	.	16ee-\LL	.	16ee-\LL	.	8AA/	be-	.	8c\	be-	.	8f\	be-	.	8ee-\	be-	.	8cc\	8ee-\
.	.	.	.	16ccc\	.	16ccc\	.	.	.	.	.	.	.	.	.	.	.	.	.	.	.
!	!	!	!	!	!	!	!	!	!	!	!	!	!	!	!	!	!	!	!	!	!LO:LB:g=original
8BB-/J	.	.	.	16dd\	.	16dd\	.	8BB-/	-a-	.	8B-\	-a-	.	8f\	-a-	.	8dd\	-a-	.	8b-\J	8dd\J
.	.	.	.	16bb-\JJ	.	16bb-\JJ	.	.	.	.	.	.	.	.	.	.	.	.	.	.	.
!	!	!	!	!	!	!	!	!	!	!	!	!	!	!	!	!	!	!	!	!LO:LB:g=original	!
!LO:TX:t=P:problem=mixed beam	!	!	!	!	!	!	!	!	!	!	!	!	!	!	!	!	!	!	!	!LO:TX:t=P:problem=mixed beam	!
8F\L	6 4	.	.	16dd\LL	.	16dd\LL	.	8F\	-to-	.	8B-\	-to-	.	8f\	-to-	.	8dd\	-to-	.	8b-\L	8dd\L
.	.	.	.	16b-\J	.	16b-\J	.	.	.	.	.	.	.	.	.	.	.	.	.	.	.
8FF/	5 3	.	.	8cc\J	.	8cc\J	.	8F\	-rum	.	8A\	-rum	.	8f\	-rum	.	8cc\	-rum	.	8f/J	8cc\J
8FF/	.	.	.	16aa\LL	.	16aa\LL	.	8r	.	.	8r	.	.	8r	.	.	8r	.	.	4r	4r
.	.	.	.	16ff\	.	16ff\	.	.	.	.	.	.	.	.	.	.	.	.	.	.	.
8F\J	.	.	.	16cc\	.	16cc\	.	8F\	quam	.	8A\	quam	.	8f\	quam	.	8cc\	quam	.	.	.
.	.	.	.	16a\JJ	.	16a\JJ	.	.	.	.	.	.	.	.	.	.	.	.	.	.	.
=8	=8	=8	=8	=8	=8	=8	=8	=8	=8	=8	=8	=8	=8	=8	=8	=8	=8	=8	=8	=8	=8
!LO:TX:t=P:problem=mixed beam	!	!	!	!	!	!	!	!	!	!	!	!	!	!	!	!	!	!	!	!	!
8G\L	.	.	1ryy	24b-/LL	.	24b-/LL	.	8G\	dul-	.	8G/	dul-	.	8d\	dul-	.	8b-\	dul-	.	4f/	2cc\
.	.	.	.	24a/	.	24a/	.	.	.	.	.	.	.	.	.	.	.	.	.	.	.
.	.	.	.	24g/	.	24g/	.	.	.	.	.	.	.	.	.	.	.	.	.	.	.
8G\	.	.	.	16g/	.	16g'/	.	8G\	-ce	.	8G/	-ce	.	8d\	-ce	.	8b-\	-ce	.	.	.
.	.	.	.	16g/JJ	.	16g'/JJ	.	.	.	.	.	.	.	.	.	.	.	.	.	.	.
8C/	7	.	.	16gg\LL	.	16gg\LL	.	8C/	quam	.	8.G/	quam	.	8.en\	quam	.	8b-\	quam	.	4cc\	.
.	.	.	.	16een\	.	16een\	.	.	.	.	.	.	.	.	.	.	.	.	.	.	.
8C/J	7	.	.	16b-\	.	16b-\	.	8C/	de-	.	.	.	.	.	.	.	8b-\	de-	.	.	.
.	.	.	.	16g\JJ	.	16g\JJ	.	.	.	.	16G/	de-	.	16e\	de-	.	.	.	.	.	.
!	!	!	!	!LO:LB:g=original	!	!	!	!	!	!	!	!	!	!	!	!	!	!	!	!	!
8F\L	.	.	.	24a/LL	.	24a/LL	.	8F\	-co-	.	8F/	-co-	.	8c/	-co-	.	8a\	-co-	.	4f/	4cc\
.	.	.	.	24g/	.	24g/	.	.	.	.	.	.	.	.	.	.	.	.	.	.	.
.	.	.	.	24f/	.	24f/	.	.	.	.	.	.	.	.	.	.	.	.	.	.	.
8F\	.	.	.	16a/	.	16a'/	.	8F\	-rum	.	8F/	-rum	.	8c/	-rum	.	8a\	-rum	.	.	.
.	.	.	.	16b-/JJ	.	16b-'/JJ	.	.	.	.	.	.	.	.	.	.	.	.	.	.	.
!	!	!	!	!LO:TX:t=P:problem=mixed beam	!	!LO:TX:t=P:problem=mixed beam	!	!LO:LB:g=original	!	!	!	!	!	!LO:LB:g=original	!	!	!	!	!	!	!
8En\	6	.	.	16cc\LL	.	16cc\LL	.	8r	.	.	8r	.	.	8r	.	.	8r	.	.	4cc\	4cc\
.	.	.	.	16c/	.	16c/	.	.	.	.	.	.	.	.	.	.	.	.	.	.	.
8E\J	.	.	.	16cc\	.	16cc\	.	8En\	est	.	8c\	est	.	8g\	est	.	8cc\	est	.	.	.
.	.	.	.	16cc\JJ	.	16cc\JJ	.	.	.	.	.	.	.	.	.	.	.	.	.	.	.
!	!	!	!	!	!	!LO:LB:g=original	!	!	!	!	!LO:LB:g=original	!	!	!	!	!	!	!	!	!	!
=9	=9	=9	=9	=9	=9	=9	=9	=9	=9	=9	=9	=9	=9	=9	=9	=9	=9	=9	=9	=9	=9
!	!	!	!	!LO:TX:t=P:problem=mixed beam	!	!LO:TX:t=P:problem=mixed beam	!	!	!	!	!	!	!	!	!	!	!	!	!	!	!
8D\L	.	.	1ryy	16ff\LL	.	16ff\LL	.	8D\	lu-	.	8c\	lu-	.	8a\	lu-	.	8ff\	lu-	.	2r	2r
.	.	.	.	16f/	.	16f/	.	.	.	.	.	.	.	.	.	.	.	.	.	.	.
8D\	7	.	.	16ff\	.	16ff\	.	8D\	-men	.	8c\	-men	.	8a\	-men	.	8ff\	-men	.	.	.
.	.	.	.	16ff\JJ	.	16ff\JJ	.	.	.	.	.	.	.	.	.	.	.	.	.	.	.
8D\	6|	.	.	16ff\LL	.	16ff\LL	.	8D\	be-	.	8Bn\	bea-	.	8g\	bea-	.	8ff\	be-	.	.	.
.	.	.	.	16dd\	.	16dd\	.	.	.	.	.	.	.	.	.	.	.	.	.	.	.
*custos:C	*	*	*	*	*	*	*	*	*	*	*	*	*	*	*	*	*	*	*	*	*
8D\J	.	.	.	16cc\	.	16cc\	.	8D\	-a-	.	8d\	-to-	.	8f\	-to-	.	8bn\	-a-	.	.	.
.	.	.	.	16bn\JJ	.	16bn\JJ	.	.	.	.	.	.	.	.	.	.	.	.	.	.	.
!LO:LB:g=original	!	!	!	!	!	!	!	!	!	!	!	!	!	!	!	!	!	!	!	!	!
!LO:TX:t=P:problem=mixed beam	!	!	!	!	!	!	!	!LO:TX:t=P:problem=mixed beam	!	!	!LO:TX:t=P:problem=4 left or middle&colon; global	!	!	!LO:TX:t=P:problem=4 left or middle&colon; global	!	!	!LO:LB:g=original	!	!	!	!
8C/L	7	.	.	16cc\LL	.	16cc\LL	.	8C/L	-to-	.	4.c\	.	.	4en\	.	.	[<2cc\	-[to]-	.	4cc\	4cc\
.	.	.	.	16ccc\	.	16ccc\	.	.	.	.	.	.	.	.	.	.	.	.	.	.	.
8c\	.	.	.	16cc\	.	16cc\	.	8c\	.	.	.	.	.	.	.	.	.	.	.	.	.
.	.	.	.	16cc\JJ	.	16cc\JJ	.	.	.	.	.	.	.	.	.	.	.	.	.	.	.
8A\	6	.	.	16c/KL	.	16cc\LL	.	8A\	.	.	.	.	.	4f\	.	.	.	.	.	4r	4r
.	.	.	.	8c/	.	16ff\	.	.	.	.	.	.	.	.	.	.	.	.	.	.	.
8F\J	.	.	.	.	.	16aa\	.	8F\J	.	.	8A\	.	.	.	.	.	.	.	.	.	.
.	.	.	.	16c/Jk	.	16ccc\JJ	.	.	.	.	.	.	.	.	.	.	.	.	.	.	.
=10	=10	=10	=10	=10	=10	=10	=10	=10	=10	=10	=10	=10	=10	=10	=10	=10	=10	=10	=10	=10	=10
!LO:TX:t=P:problem=mixed beam	!	!	!	!	!	!	!	!	!	!	!	!	!	!LO:SIC:o=4e-\:v	!	!	!	!	!	!	!
8G\L	6| 4 3	.	1ryy	16c/KL	.	24bb-\LL	.	4G\	.	.	2B-\	.	.	4en	.	.	1cc_<	.	.	2cc\	2cc\
.	.	.	.	.	.	24aa\	.	.	.	.	.	.	.	.	.	.	.	.	.	.	.
.	.	.	.	8c/	.	.	.	.	.	.	.	.	.	.	.	.	.	.	.	.	.
.	.	.	.	.	.	24gg\	.	.	.	.	.	.	.	.	.	.	.	.	.	.	.
8GG/	.	.	.	.	.	16gg'\	.	.	.	.	.	.	.	.	.	.	.	.	.	.	.
.	.	.	.	8c/	.	16gg'\JJ	.	.	.	.	.	.	.	.	.	.	.	.	.	.	.
8En\	6 5	.	.	.	.	16cc\LL	.	8En\L	.	.	.	.	.	4g\	.	.	.	.	.	.	.
.	.	.	.	8c/	.	16een\	.	.	.	.	.	.	.	.	.	.	.	.	.	.	.
8C\J	.	.	.	.	.	16gg\	.	8C\J	.	.	.	.	.	.	.	.	.	.	.	.	.
.	.	.	.	[16c/Jk	.	16bb-\JJ	.	.	.	.	.	.	.	.	.	.	.	.	.	.	.
8F\L	.	.	.	16c/KL]	.	24aa\LL	.	8F\	.	.	2A\	.	.	4f\	.	.	.	.	.	4f/	4cc\
.	.	.	.	.	.	24gg\	.	.	.	.	.	.	.	.	.	.	.	.	.	.	.
.	.	.	.	8c/	.	.	.	.	.	.	.	.	.	.	.	.	.	.	.	.	.
.	.	.	.	.	.	24ff\	.	.	.	.	.	.	.	.	.	.	.	.	.	.	.
8A\	6	.	.	.	.	16ff'\	.	4A\	.	.	.	.	.	.	.	.	.	.	.	.	.
.	.	.	.	8c/	.	16ff'\JJ	.	.	.	.	.	.	.	.	.	.	.	.	.	.	.
8A\	.	.	.	.	.	16cc\LL	.	.	.	.	.	.	.	4a\	.	.	.	.	.	4r	4r
.	.	.	.	8c/	.	16ff\	.	.	.	.	.	.	.	.	.	.	.	.	.	.	.
8F\J	.	.	.	.	.	16aa\	.	8F\	.	.	.	.	.	.	.	.	.	.	.	.	.
.	.	.	.	16c/Jk	.	16ccc\JJ	.	.	.	.	.	.	.	.	.	.	.	.	.	.	.
!	!	!	!	!	!	!	!	!LO:LB:g=original	!	!	!	!	!	!	!	!	!	!	!	!	!
=11	=11	=11	=11	=11	=11	=11	=11	=11	=11	=11	=11	=11	=11	=11	=11	=11	=11	=11	=11	=11	=11
!LO:TX:t=P:problem=mixed beam	!	!	!	!	!	!	!	!	!	!	!	!	!	!	!	!	!	!	!	!	!
8G\L	6|	.	1ryy	16c/KL	.	24bb-\LL	.	4G\	.	.	2G/	.	.	2b-\	.	.	2cc\]	.	.	4r	4r
.	.	.	.	.	.	24aa\	.	.	.	.	.	.	.	.	.	.	.	.	.	.	.
.	.	.	.	8c/	.	.	.	.	.	.	.	.	.	.	.	.	.	.	.	.	.
.	.	.	.	.	.	24gg\	.	.	.	.	.	.	.	.	.	.	.	.	.	.	.
8GG/	.	.	.	.	.	16gg'\	.	.	.	.	.	.	.	.	.	.	.	.	.	.	.
.	.	.	.	8c/	.	16gg'\JJ	.	.	.	.	.	.	.	.	.	.	.	.	.	.	.
8En\	6 5	.	.	.	.	16cc\LL	.	8En\L	.	.	.	.	.	.	.	.	.	.	.	4cc\	4cc\
.	.	.	.	8c/	.	16een\	.	.	.	.	.	.	.	.	.	.	.	.	.	.	.
8C\J	.	.	.	.	.	16gg\	.	8C\J	.	.	.	.	.	.	.	.	.	.	.	.	.
.	.	.	.	16c/Jk	.	16bb-\JJ	.	.	.	.	.	.	.	.	.	.	.	.	.	.	.
!LO:TX:t=P:problem=mixed beam	!	!	!	!LO:LB:g=original	!	!LO:LB:g=original	!	!	!	!	!	!	!	!	!	!	!	!	!	!	!
8F\L	.	.	.	4c/	.	24aa\LL	.	4F\	-rum	.	4A\	-rum	.	4a\	-rum	.	4cc\	-rum	.	4f/	4cc\
.	.	.	.	.	.	24bb-\	.	.	.	.	.	.	.	.	.	.	.	.	.	.	.
.	.	.	.	.	.	24ccc\	.	.	.	.	.	.	.	.	.	.	.	.	.	.	.
8A\	6	.	.	.	.	16ccc\	.	.	.	.	.	.	.	.	.	.	.	.	.	.	.
.	.	.	.	.	.	16ccc\JJ	.	.	.	.	.	.	.	.	.	.	.	.	.	.	.
8AA/	.	.	.	16ccc\LL	.	16ccc\LL	.	8r	.	.	8r	.	.	8r	.	.	8r	.	.	4r	4r
.	.	.	.	16aa\	.	16aa\	.	.	.	.	.	.	.	.	.	.	.	.	.	.	.
8F\J	.	.	.	16ff\	.	16ff\	.	8F\	quos	.	8A\	quos	.	8a\	quos	.	8cc\	quos	.	.	.
.	.	.	.	16cc\JJ	.	16cc\JJ	.	.	.	.	.	.	.	.	.	.	.	.	.	.	.
!	!	!	!	!	!	!	!	!	!	!	!	!	!	!LO:LB:g=original	!	!	!	!	!	!	!
=12	=12	=12	=12	=12	=12	=12	=12	=12	=12	=12	=12	=12	=12	=12	=12	=12	=12	=12	=12	=12	=12
!LO:TX:t=P:problem=mixed beam	!	!	!	!	!	!	!	!	!	!	!	!	!	!	!	!	!	!	!	!LO:TX:t=P:problem=niejednoznaczny zapis [przyjęto zgodnie z cor I]	!
8BB-/L	.	.	1ryy	24dd\LL	.	24dd\LL	.	4B-\	coe-	.	4B-\	coe-	.	4f\	coe-	.	4dd\	coe-	.	1cc	1cc
.	.	.	.	24cc\	.	24cc\	.	.	.	.	.	.	.	.	.	.	.	.	.	.	.
.	.	.	.	24b-\	.	24b-\	.	.	.	.	.	.	.	.	.	.	.	.	.	.	.
8BB-/	.	.	.	16dd\	.	16dd'\	.	.	.	.	.	.	.	.	.	.	.	.	.	.	.
.	.	.	.	16dd\JJ	.	16dd'\JJ	.	.	.	.	.	.	.	.	.	.	.	.	.	.	.
!	!	!	!	!	!	!	!	!	!	!	!	!	!	!	!	!	!LO:SIC:o=4ee-\	!	!	!	!
8B-\	.	.	.	24een\LL	.	24een\LL	.	4B-\	-li	.	4c\	-li	.	4g\	-li	.	4een	-li	.	.	.
.	.	.	.	24dd\	.	24dd\	.	.	.	.	.	.	.	.	.	.	.	.	.	.	.
.	.	.	.	24cc\	.	24cc\	.	.	.	.	.	.	.	.	.	.	.	.	.	.	.
8B-\J	4 2	.	.	16ee'\	.	16ee'\	.	.	.	.	.	.	.	.	.	.	.	.	.	.	.
.	.	.	.	16ee'\JJ	.	16ee'\JJ	.	.	.	.	.	.	.	.	.	.	.	.	.	.	.
!	!	!	!	!	!	!	!	!	!	!	!LO:LB:g=original	!	!	!	!	!	!	!	!	!	!
8A\L	6	.	.	16ff\LL	.	16ff\LL	.	4A\	te-	.	4c\	te-	.	4a\	te-	.	8ff\	te-	.	.	.
.	.	.	.	16cc\	.	16cc\	.	.	.	.	.	.	.	.	.	.	.	.	.	.	.
8F\	.	.	.	16ff\	.	16ff\	.	.	.	.	.	.	.	.	.	.	8gg\	-net	.	.	.
.	.	.	.	16ff\JJ	.	16ff\JJ	.	.	.	.	.	.	.	.	.	.	.	.	.	.	.
8En\	6 5	.	.	16gg\LL	.	16gg\LL	.	8En\	-net	.	8c\	-net	.	8g\	-net	.	8r	.	.	.	.
.	.	.	.	16bb-\	.	16bb-\	.	.	.	.	.	.	.	.	.	.	.	.	.	.	.
8C\J	.	.	.	16gg\	.	16gg\	.	8C/	quos	.	8c\	quos	.	8g\	quos	.	8b-\	quos	.	.	.
.	.	.	.	16b-\JJ	.	16b-\JJ	.	.	.	.	.	.	.	.	.	.	.	.	.	.	.
!	!	!	!	!	!	!	!	!	!	!	!	!	!	!	!	!	!	!	!	!LO:LB:g=original	!LO:LB:g=original
=13	=13	=13	=13	=13	=13	=13	=13	=13	=13	=13	=13	=13	=13	=13	=13	=13	=13	=13	=13	=13	=13
!LO:TX:t=P:problem=mixed beam	!	!	!	!	!	!	!	!	!	!	!	!	!	!	!	!	!	!	!	!LO:TX:t=P:problem=mixed beam	!
8F\L	.	.	1ryy	16a\LL	.	16a\LL	.	8F\	te-	.	8c\	te-	.	8f\	te-	.	8a\	te-	.	8f/L	8b-\L
.	.	.	.	16ff\	.	16ff\	.	.	.	.	.	.	.	.	.	.	.	.	.	.	.
8BB-/	.	.	.	16dd\	.	16dd\	.	8BB-/	-net	.	8d\	-net	.	8g\	-net	.	8b-\	-net	.	8b-\J	8dd\J
.	.	.	.	16b-\JJ	.	16b-\JJ	.	.	.	.	.	.	.	.	.	.	.	.	.	.	.
!	!	!	!	!	!	!	!	!	!	!	!	!	!	!	!	!	!	!	!	!LO:TX:t=P:problem=mixed beam	!
8C/	6 4	.	.	16a\LL	.	16a\LL	.	4C/	se-	.	4c\	se-	.	8f\L	se-	.	8a\L	se-	.	8f/L	4cc\
.	.	.	.	16ff\	.	16ff\	.	.	.	.	.	.	.	.	.	.	.	.	.	.	.
8C/J	5 4	.	.	16g\	.	16g\	.	.	.	.	.	.	.	8en\J	.	.	8g\J	.	.	8cc\J	.
.	.	.	.	16een\JJ	.	16een\JJ	.	.	.	.	.	.	.	.	.	.	.	.	.	.	.
8F\L	.	.	.	16a\LL	.	16a\LL	.	4F\	-des	.	4c\	-des	.	4f\	-des	.	4a\	-des	.	4f/	4cc\
.	.	.	.	16ff\	.	16ff\	.	.	.	.	.	.	.	.	.	.	.	.	.	.	.
8F\	.	.	.	16aa\	.	16aa\	.	.	.	.	.	.	.	.	.	.	.	.	.	.	.
.	.	.	.	16ff\JJ	.	16ff\JJ	.	.	.	.	.	.	.	.	.	.	.	.	.	.	.
8En\	6 5	.	.	16bb-\LL	.	16bb-\LL	.	8En\L	quos	.	4c\	quos	.	4g\	quos	.	4b-\	quos	.	4cc\	4cc\
!	!	!	!	!	!	!LO:SIC:o=16aa\	!	!	!	!	!	!	!	!	!	!	!	!	!	!	!
.	.	.	.	16gg\	.	16gg	.	.	.	.	.	.	.	.	.	.	.	.	.	.	.
8C\J	.	.	.	16een\	.	16een\	.	8C\J	.	.	.	.	.	.	.	.	.	.	.	.	.
.	.	.	.	16b-\JJ	.	16b-\JJ	.	.	.	.	.	.	.	.	.	.	.	.	.	.	.
!LO:LB:g=original	!	!	!	!LO:LB:g=original	!	!LO:LB:g=original	!	!LO:LB:g=original	!	!	!	!	!	!	!	!	!LO:LB:g=original	!	!	!	!
=14	=14	=14	=14	=14	=14	=14	=14	=14	=14	=14	=14	=14	=14	=14	=14	=14	=14	=14	=14	=14	=14
!LO:TX:t=P:problem=mixed beam	!	!	!	!	!	!	!	!	!	!	!	!	!	!	!	!	!	!	!	!	!
8F\L	.	.	1ryy	16a\LL	.	16a\LL	.	8F\	te-	.	8c\	te-	.	8f\	te-	.	8a\	te-	.	8f/L	8cc\L
.	.	.	.	16ff\	.	16ff\	.	.	.	.	.	.	.	.	.	.	.	.	.	.	.
8BB-/	.	.	.	16dd\	.	16dd\	.	8BB-/	-net	.	16B-\LL	-net	.	8g\	-net	.	8b-\	-net	.	8b-/	8dd\J
.	.	.	.	16bb-\JJ	.	16bb-\JJ	.	.	.	.	16d\JJ	.	.	.	.	.	.	.	.	.	.
8C/	6 4	.	.	16aa\LL	.	16aa\LL	.	4C/	se-	.	4c\	se-	.	8f\L	se-	.	8a\L	ſe-	.	8f/	4cc\
.	.	.	.	16ff\	.	16ff\	.	.	.	.	.	.	.	.	.	.	.	.	.	.	.
8CC/J	7	.	.	16g\	.	16g\	.	.	.	.	.	.	.	8en\J	.	.	8g\J	.	.	8cc/J	.
.	.	.	.	16een\JJ	.	16een\JJ	.	.	.	.	.	.	.	.	.	.	.	.	.	.	.
!LO:TX:t=P:problem=mixed beam	!	!	!	!	!	!	!	!	!	!	!	!	!	!	!	!	!	!	!	!	!
8FF/L	.	.	.	16ff\LL	.	16ff\LL	.	4FF/	-des	.	4c\	-des	.	4f\	-es,	.	4f/	-des	.	4f/	4cc\
.	.	.	.	16a\	.	16a\	.	.	.	.	.	.	.	.	.	.	.	.	.	.	.
!LO:TX:a:t=Solo	!	!	!	!	!	!	!	!	!	!	!	!	!	!	!	!	!	!	!	!	!
8F/J	.	.	.	16cc\	.	16cc\	.	.	.	.	.	.	.	.	.	.	.	.	.	.	.
.	.	.	.	16ff\JJ	.	16ff\JJ	.	.	.	.	.	.	.	.	.	.	.	.	.	.	.
8r	.	.	.	16aa\LL	.	16aa\LL	.	4r	.	.	4r	.	.	4r	.	.	4r	.	.	4r	4r
.	.	.	.	16ff\	.	16ff\	.	.	.	.	.	.	.	.	.	.	.	.	.	.	.
8F\	6	.	.	16cc\	.	16cc\	.	.	.	.	.	.	.	.	.	.	.	.	.	.	.
.	.	.	.	16a\JJ	.	16a\JJ	.	.	.	.	.	.	.	.	.	.	.	.	.	.	.
!	!	!	!	!	!	!	!	!	!	!	!	!	!	!LO:LB:g=original	!	!	!	!	!	!	!
=15	=15	=15	=15	=15	=15	=15	=15	=15	=15	=15	=15	=15	=15	=15	=15	=15	=15	=15	=15	=15	=15
!LO:TX:t=P:problem=mixed beam	!	!	!	!	!	!	!	!	!	!	!	!	!	!	!	!	!	!	!	!	!
8G\L	7	.	1ryy	24b-/LL	.	24b-/LL	.	0r	.	.	0r	.	.	0r	.	.	0r	.	.	1r	1r
.	.	.	.	24a/	.	24a/	.	.	.	.	.	.	.	.	.	.	.	.	.	.	.
.	.	.	.	24g/	.	24g/	.	.	.	.	.	.	.	.	.	.	.	.	.	.	.
8GG/	.	.	.	16g/	.	16g/	.	.	.	.	.	.	.	.	.	.	.	.	.	.	.
.	.	.	.	16g/JJ	.	16g/JJ	.	.	.	.	.	.	.	.	.	.	.	.	.	.	.
8C/	7	.	.	16gg\LL	.	16gg\LL	.	.	.	.	.	.	.	.	.	.	.	.	.	.	.
.	.	.	.	16een\	.	16een\	.	.	.	.	.	.	.	.	.	.	.	.	.	.	.
8En/J	.	.	.	16cc\	.	16cc\	.	.	.	.	.	.	.	.	.	.	.	.	.	.	.
.	.	.	.	16b-\JJ	.	16b-\JJ	.	.	.	.	.	.	.	.	.	.	.	.	.	.	.
8F\L	.	.	.	16a\LL	.	16a\LL	.	.	.	.	.	.	.	.	.	.	.	.	.	.	.
.	.	.	.	16ff\	.	16ff\	.	.	.	.	.	.	.	.	.	.	.	.	.	.	.
8F\	.	.	.	16aa\	.	16aa\	.	.	.	.	.	.	.	.	.	.	.	.	.	.	.
.	.	.	.	16ff\JJ	.	16ff\JJ	.	.	.	.	.	.	.	.	.	.	.	.	.	.	.
8En\	6 5	.	.	16bb-\LL	.	16bb-\LL	.	.	.	.	.	.	.	.	.	.	.	.	.	.	.
.	.	.	.	16gg\	.	16gg\	.	.	.	.	.	.	.	.	.	.	.	.	.	.	.
8c\J	.	.	.	16een\	.	16een\	.	.	.	.	.	.	.	.	.	.	.	.	.	.	.
.	.	.	.	16b-\JJ	.	16b-\JJ	.	.	.	.	.	.	.	.	.	.	.	.	.	.	.
=16	=16	=16	=16	=16	=16	=16	=16	=16	=16	=16	=16	=16	=16	=16	=16	=16	=16	=16	=16	=16	=16
!	!	!	!	!LO:TX:t=P:problem=mixed beam	!	!LO:TX:t=P:problem=mixed beam	!	!	!	!	!	!	!	!	!	!	!	!	!	!	!
8F\L	.	.	1ryy	16a\LL	.	16a\LL	.	.	.	.	.	.	.	.	.	.	.	.	.	4r	4r
.	.	.	.	16ff\	.	16ff\	.	.	.	.	.	.	.	.	.	.	.	.	.	.	.
8A\	x 6	.	.	16f/	.	16f/	.	.	.	.	.	.	.	.	.	.	.	.	.	.	.
.	.	.	.	16a/JJ	.	16a/JJ	.	.	.	.	.	.	.	.	.	.	.	.	.	.	.
8B-\	6 5	.	.	16g/LL	.	16g/LL	.	.	.	.	.	.	.	.	.	.	.	.	.	8r	8r
.	.	.	.	16dd/	.	16dd/	.	.	.	.	.	.	.	.	.	.	.	.	.	.	.
8c\J	4	.	.	16cc/	.	16cc/	.	.	.	.	.	.	.	.	.	.	.	.	.	8cc\	8cc\
.	.	.	.	16en/JJ	.	16en/JJ	.	.	.	.	.	.	.	.	.	.	.	.	.	.	.
!	!	!	!	!	!	!LO:LB:g=original	!	!	!	!	!	!	!	!	!	!	!	!	!	!	!
8F/L	.	.	.	8f/L	.	8f/L	.	.	.	.	.	.	.	.	.	.	.	.	.	4f/	4cc\
16C/L	.	.	.	8a/J 8ff	.	8a/J 8ff	.	.	.	.	.	.	.	.	.	.	.	.	.	.	.
16AA/JJ	.	.	.	.	.	.	.	.	.	.	.	.	.	.	.	.	.	.	.	.	.
4FF/	.	.	.	4a/ 4ff	.	4a/ 4ff	.	.	.	.	.	.	.	.	.	.	.	.	.	4f/	4cc\
!	!	!	!	!LO:LB:g=original	!	!	!	!	!	!	!LO:LB:g=original	!	!	!	!	!	!	!	!	!	!
=17	=17	=17	=17	=17	=17	=17	=17	=17	=17	=17	=17	=17	=17	=17	=17	=17	=17	=17	=17	=17	=17
!	!	!	!	!	!LO:DY:b:t=po	!LO:TX:t=P:problem=klamra łukowa	!LO:DY:b:t=pia	!	!	!LO:DY:a:t=po	!	!	!LO:DY:a:t=pia	!	!	!LO:DY:a:t=po	!	!	!LO:DY:a	!	!
8r	.	.	1ryy	24cc/LL	p	24aa-X\LL	p	4F\	ah!	p	4c\	ah!	p	4a-X\	ah!	p	4ff\	ah;	p	00r	00r
.	.	.	.	24b-/	.	24gg\	.	.	.	.	.	.	.	.	.	.	.	.	.	.	.
.	.	.	.	24a-X/	.	24ff\	.	.	.	.	.	.	.	.	.	.	.	.	.	.	.
!	!	!LO:DY:b:t=pia	!	!	!	!	!	!	!	!	!	!	!	!	!	!	!	!	!	!	!
8F\L	6	p	.	16a-/	.	16ff'\	.	.	.	.	.	.	.	.	.	.	.	.	.	.	.
.	.	.	.	16a-/JJ	.	16ff'\JJ	.	.	.	.	.	.	.	.	.	.	.	.	.	.	.
*	*	*	*	*tremolo	*	*tremolo	*	*	*	*	*	*	*	*	*	*	*	*	*	*	*
8F\	.	.	.	16a-/LL	.	16ff\LL	.	4r	.	.	4r	.	.	4r	.	.	4r	.	.	.	.
.	.	.	.	16a-/	.	16ff\	.	.	.	.	.	.	.	.	.	.	.	.	.	.	.
8F\J	.	.	.	16a-/	.	16ff\	.	.	.	.	.	.	.	.	.	.	.	.	.	.	.
.	.	.	.	16a-/JJ	.	16ff\JJ	.	.	.	.	.	.	.	.	.	.	.	.	.	.	.
*	*	*	*	*Xtremolo	*	*Xtremolo	*	*	*	*	*	*	*	*	*	*	*	*	*	*	*
8r	.	.	.	24dd\LL	.	24ff\LL	.	4G\	ah!	.	4Bn\	ah!	.	4g\	ah!	.	4ff\	ah;	.	.	.
.	.	.	.	24cc\	.	24ee-\	.	.	.	.	.	.	.	.	.	.	.	.	.	.	.
.	.	.	.	24bn\	.	24dd\	.	.	.	.	.	.	.	.	.	.	.	.	.	.	.
!LO:TX:t=P:problem=mixed beam	!	!	!	!	!	!	!	!	!	!	!	!	!	!	!	!	!	!	!	!	!
8G\L	7 7	.	.	16b\	.	16dd'\	.	.	.	.	.	.	.	.	.	.	.	.	.	.	.
.	.	.	.	16b\JJ	.	16dd'\JJ	.	.	.	.	.	.	.	.	.	.	.	.	.	.	.
*	*	*	*	*tremolo	*	*tremolo	*	*	*	*	*	*	*	*	*	*	*	*	*	*	*
8GG/	.	.	.	16b\LL	.	16dd\LL	.	4r	.	.	4r	.	.	4r	.	.	4r	.	.	.	.
.	.	.	.	16b\	.	16dd\	.	.	.	.	.	.	.	.	.	.	.	.	.	.	.
8G\J	.	.	.	16b\	.	16dd\	.	.	.	.	.	.	.	.	.	.	.	.	.	.	.
.	.	.	.	16b\JJ	.	16dd\JJ	.	.	.	.	.	.	.	.	.	.	.	.	.	.	.
*	*	*	*	*Xtremolo	*	*Xtremolo	*	*	*	*	*	*	*	*	*	*	*	*	*	*	*
=18	=18	=18	=18	=18	=18	=18	=18	=18	=18	=18	=18	=18	=18	=18	=18	=18	=18	=18	=18	=18	=18
*tremolo	*	*	*	*	*	*	*	*	*	*	*	*	*	*	*	*	*	*	*	*	*
!	!	!	!	!	!	!	!	!	!	!	!LO:SIC:o=4B-\	!	!	!	!	!	!	!	!	!	!
.	x 7	.	.	.	.	.	.	.	.	.	.	.	.	.	.	.	.	.	.	.	.
8G\L	5 3	.	1ryy	16Bn/KL	.	16dd\KL	.	4G\	post	.	4Bn	post	.	4g\	pos	.	4dd\	post	.	.	.
.	5 3	.	.	8B/	.	8dd\	.	.	.	.	.	.	.	.	.	.	.	.	.	.	.
8G\	.	.	.	.	.	.	.	.	.	.	.	.	.	.	.	.	.	.	.	.	.
.	.	.	.	16B/Jk	.	16dd\Jk	.	.	.	.	.	.	.	.	.	.	.	.	.	.	.
8G\	.	.	.	16c/KL	.	16ee-\KL	.	4G\	per	.	4c\	per	.	4g\	per	.	4ee-\	per	.	.	.
.	.	.	.	8c/	.	8ee-\	.	.	.	.	.	.	.	.	.	.	.	.	.	.	.
8G\J	x 7	.	.	.	.	.	.	.	.	.	.	.	.	.	.	.	.	.	.	.	.
.	5 3	.	.	16c/Jk	.	16ee-\Jk	.	.	.	.	.	.	.	.	.	.	.	.	.	.	.
8G\L	6 4	.	.	16d/KL	.	16bn\KL	.	4G\	ac-	.	4d\	ac-	.	4g\	ac-	.	4bn\	ac-	.	.	.
.	.	.	.	8d/	.	8b\	.	.	.	.	.	.	.	.	.	.	.	.	.	.	.
8G\	.	.	.	.	.	.	.	.	.	.	.	.	.	.	.	.	.	.	.	.	.
.	.	.	.	16d/Jk	.	16b\Jk	.	.	.	.	.	.	.	.	.	.	.	.	.	.	.
8G\	.	.	.	16e-/KL	.	16cc\KL	.	4G\	-tam	.	4e-\	-tam	.	4g\	-tam	.	4cc\	-tam	.	.	.
.	.	.	.	8e-/	.	8cc\	.	.	.	.	.	.	.	.	.	.	.	.	.	.	.
8G\J	.	.	.	.	.	.	.	.	.	.	.	.	.	.	.	.	.	.	.	.	.
.	.	.	.	16e-/Jk	.	16cc\Jk	.	.	.	.	.	.	.	.	.	.	.	.	.	.	.
*Xtremolo	*	*	*	*	*	*	*	*	*	*	*	*	*	*	*	*	*	*	*	*	*
!LO:LB:g=original	!	!	!	!	!	!	!	!LO:LB:g=original	!	!	!	!	!	!	!	!	!	!	!	!	!
=19	=19	=19	=19	=19	=19	=19	=19	=19	=19	=19	=19	=19	=19	=19	=19	=19	=19	=19	=19	=19	=19
!LO:TX:t=P:problem=mixed beam	!	!LO:DY:b:t=for	!	!	!LO:DY:b:t=fo.	!	!LO:DY:b:t=for	!	!	!LO:DY:a:t=for	!	!	!LO:DY:a:t=for	!	!	!LO:DY:a:t=for	!	!	!LO:DY:a:t=for	!	!
.	7	.	.	.	.	.	.	.	.	.	.	.	.	.	.	.	.	.	.	.	.
8G\L	7	f	1ryy	8dd\L	f	8ff\L|	f	8G\	sor-	f	8d\	ſor-	f	8g\	sor-	f	8ff\	ſor-	f	.	.
8C/J	.	.	.	8cc\J	.	8ee-\J|	.	8c\	-tem	.	8c\	-tem	.	8g\	-tem	.	8ee-\	-tem	.	.	.
!	!	!	!	!	!LO:DY:b	!	!LO:DY:b:t=p&colon;	!	!	!	!	!	!	!	!	!	!	!	!	!	!
4r	.	.	.	4r	p	(16gg\LL	p	4r	.	.	4r	.	.	4r	.	.	4r	.	.	.	.
.	.	.	.	.	.	16ee-\	.	.	.	.	.	.	.	.	.	.	.	.	.	.	.
.	.	.	.	.	.	16dd\	.	.	.	.	.	.	.	.	.	.	.	.	.	.	.
.	.	.	.	.	.	16cc\JJ)	.	.	.	.	.	.	.	.	.	.	.	.	.	.	.
!	!	!LO:DY:b:t=pia	!	!	!	!LO:LB:g=original	!	!	!	!LO:DY:a:t=po	!	!	!LO:DY:a:t=pia	!	!	!LO:DY:a:t=piu	!LO:LB:g=original	!	!	!	!
8F\L	.	p	.	16A/KL	.	16cc\KL	.	4F\	post	p	4A\	post	p	4f\	post	p	4cc\	post	p	.	.
.	.	.	.	8A/	.	8cc\	.	.	.	.	.	.	.	.	.	.	.	.	.	.	.
8F\	.	.	.	.	.	.	.	.	.	.	.	.	.	.	.	.	.	.	.	.	.
.	6	.	.	16A/Jk	.	16cc\Jk	.	.	.	.	.	.	.	.	.	.	.	.	.	.	.
8F\	6 4	.	.	16B-/KL	.	16dd-X\KL	.	4F\	per	.	4B-\	per	.	4f\	per	.	4dd-X\	per	.	.	.
.	.	.	.	8B-/	.	8dd-\	.	.	.	.	.	.	.	.	.	.	.	.	.	.	.
8F\J	.	.	.	.	.	.	.	.	.	.	.	.	.	.	.	.	.	.	.	.	.
.	.	.	.	16B-/Jk	.	16dd-\Jk	.	.	.	.	.	.	.	.	.	.	.	.	.	.	.
!	!	!	!	!LO:LB:g=original	!	!	!	!	!	!	!	!	!	!	!	!	!	!	!	!	!
=20	=20	=20	=20	=20	=20	=20	=20	=20	=20	=20	=20	=20	=20	=20	=20	=20	=20	=20	=20	=20	=20
!	!	!	!	!	!	!	!	!	!	!	!	!	!	!	!	!	!	!	!LO:DY:a	!	!
8F\L	5 3	.	1ryy	16c/KL	.	16a/KL	.	4F\	ac-	.	4c\	ac-	.	4f\	ac-	.	4a\	ac-	.	.	.
.	.	.	.	8c/	.	8a/	.	.	.	.	.	.	.	.	.	.	.	.	.	.	.
8F\	.	.	.	.	.	.	.	.	.	.	.	.	.	.	.	.	.	.	.	.	.
.	6	.	.	16c/Jk	.	16a/Jk	.	.	.	.	.	.	.	.	.	.	.	.	.	.	.
8F\	6 4	.	.	16d-X/KL	.	16b-/KL	.	4F\	-tam	.	4d-X\	-tam	.	4f\	-tam	.	4b-\	-tam	.	.	.
.	.	.	.	8d-/	.	8b-/	.	.	.	.	.	.	.	.	.	.	.	.	.	.	.
8F\J	.	.	.	.	.	.	.	.	.	.	.	.	.	.	.	.	.	.	.	.	.
.	.	.	.	16d-/Jk	.	16b-/Jk	.	.	.	.	.	.	.	.	.	.	.	.	.	.	.
!	!	!LO:DY:b:t=for	!	!LO:N:vis=8.	!LO:DY:b:t=for	!	!LO:DY:b:t=for&colon;	!	!	!LO:DY:a:t=for	!LO:LB:g=original	!	!LO:DY:a:t=for	!LO:LB:g=original	!LO:DY:a:t=for	!LO:DY:a	!	!	!LO:DY:a	!	!
8F\L	7 3	f	.	8cc\L	f	8ee-\L	f	8F\	ſor-	f	8c\	ſor-	f	8f\	sor-	f	8ee-\	ſor-	f	.	.
8B-\J	-	.	.	8b-\J	.	8dd-X\J	.	8B-\	-tem	.	8B-\	-tem	.	8f\	-tem	.	8dd-X\	-tem	.	.	.
!	!	!	!	!	!	!	!LO:DY:b:t=pia	!	!	!	!	!	!	!	!	!	!	!	!	!	!
8r	.	.	.	16ff\LL	.	(16ff\LL	p	8r	.	.	8r	.	.	8r	.	.	8r	.	.	.	.
!	!	!	!	!	!LO:DY:b:t=p.	!	!	!	!	!	!	!	!	!	!	!	!	!	!	!	!
.	.	.	.	16dd-X\	p	16dd-\	.	.	.	.	.	.	.	.	.	.	.	.	.	.	.
!	!	!LO:DY:b:t=pia	!	!	!	!	!	!	!	!LO:DY:a:t=po	!	!	!LO:DY:a:t=pia	!	!	!LO:DY:a:t=po	!	!	!LO:DY:a	!	!
8D-X\	6	p	.	16cc\	.	16cc\	.	8D-X/	Post	p	8B-\	per	p	8f\	per	p	8b-\	per	p	.	.
.	.	.	.	16b-\JJ	.	16b-\JJ)	.	.	.	.	.	.	.	.	.	.	.	.	.	.	.
=21	=21	=21	=21	=21	=21	=21	=21	=21	=21	=21	=21	=21	=21	=21	=21	=21	=21	=21	=21	=21	=21
8AA/L	6 5	.	1ryy	16cc\KL	.	16ee-\KL	.	4AA/	ac-	.	4c\	ac-	.	4f\	ac-	.	4ee-\	ac-	.	1r	1r
.	.	.	.	8ee-\	.	8ccc\	.	.	.	.	.	.	.	.	.	.	.	.	.	.	.
8AA/	.	.	.	.	.	.	.	.	.	.	.	.	.	.	.	.	.	.	.	.	.
.	.	.	.	16cc\Jk	.	16ee-\Jk	.	.	.	.	.	.	.	.	.	.	.	.	.	.	.
8BB-/	-	.	.	16b-\KL	.	16dd-X\KL	.	4BB-/	-tam	.	4B-\	-tam	.	4f\	-tam	.	4dd-X\	-tam	.	.	.
.	.	.	.	8dd-X\	.	8bb-\	.	.	.	.	.	.	.	.	.	.	.	.	.	.	.
8BB-/J	.	.	.	.	.	.	.	.	.	.	.	.	.	.	.	.	.	.	.	.	.
.	.	.	.	16b-\Jk	.	16dd-\Jk	.	.	.	.	.	.	.	.	.	.	.	.	.	.	.
!LO:TX:t=P:problem=mixed beam	!	!	!	!	!	!	!	!	!	!	!	!	!	!	!	!	!	!	!	!	!
8F\L	6 4	.	.	8b-/L	.	16dd-\LL	.	8F\	ſor-	.	8B-\	ſor-	.	8f\	ſor-	.	8dd-\	ſor-	.	.	.
.	.	.	.	.	.	16b-\J	.	.	.	.	.	.	.	.	.	.	.	.	.	.	.
!	!	!	!	!	!LO:DY:b	!	!	!	!	!	!	!	!	!	!	!	!	!	!	!	!
8FF/J	5 3	.	.	8a/J	f	8cc\J	.	8F\	-tem	.	8A\	-tem	.	8f\	-tem	.	8cc\	-tem	.	.	.
!	!	!	!	!	!	!	!LO:DY:b:t=fo	!	!	!	!	!	!	!	!	!	!	!	!	!	!
4FF/	.	.	.	4f/ 4a	.	4e-/ 4a 4ff	f	4r	.	.	4r	.	.	4r	.	.	4r	.	.	.	.
!	!	!	!	!	!	!	!	!LO:LB:g=original	!	!	!	!	!	!	!	!	!	!	!	!LO:LB:g=original	!
=22	=22	=22	=22	=22	=22	=22	=22	=22	=22	=22	=22	=22	=22	=22	=22	=22	=22	=22	=22	=22	=22
!LO:TX:a:t=T	!	!LO:DY:b:t=forte	!	!	!	!	!	!	!	!LO:DY:a:t=for	!	!	!LO:DY:a:t=for	!	!	!LO:DY:a:t=for	!	!	!LO:DY:a	!	!
4BB-/	.	f	1ryy	8B-/L	.	8B-/L	.	4B-\	fac	f	4d\	fac	f	4f\	fac	f	4b-\	fac	f	4B-/	4b-\
.	.	.	.	16d/L	.	16d/L	.	.	.	.	.	.	.	.	.	.	.	.	.	.	.
.	.	.	.	16f/JJ	.	16f/JJ	.	.	.	.	.	.	.	.	.	.	.	.	.	.	.
!LO:TX:t=P:problem=mixed beam	!	!	!	!	!	!	!	!	!	!	!	!	!	!	!	!	!	!	!	!	!
8B-\L	.	.	.	16b-\LL	.	16b-\LL	.	8B-\	per	.	8d\	per	.	8b-\	per	.	8b-\	per	.	4B-/	4b-\
.	.	.	.	16dd\	.	16dd\	.	.	.	.	.	.	.	.	.	.	.	.	.	.	.
8BB-/J	.	.	.	16ff\	.	16ff\	.	8B-\	fe-	.	8d\	fe-	.	8b-\	fe-	.	8ff\	fe-	.	.	.
.	.	.	.	16bb-\JJ	.	16bb-\JJ	.	.	.	.	.	.	.	.	.	.	.	.	.	.	.
!	!	!	!	!	!	!LO:LB:g=original	!	!	!	!	!	!	!	!	!	!	!	!	!	!	!
8E-\L	.	.	.	16gg\LL	.	16gg\LL	.	8E-\	-li-	.	8e-\	-li-	.	8b-\	-li-	.	8gg\	-li-	.	4B-/	4b-\
.	.	.	.	16ee-\J	.	16ee-\J	.	.	.	.	.	.	.	.	.	.	.	.	.	.	.
8B-\	.	.	.	8ff\J	.	8ff\J	.	8B-\	-cem	.	8d\	-cem	.	8b-\	-cem	.	8ff\	-cem	.	.	.
!	!	!	!	!	!	!	!	!	!	!	!	!	!	!	!	!	!LO:LB:g=original	!	!	!	!
8d\	.	.	.	16bb-\LL	.	16bb-\LL	.	8r	.	.	8r	.	.	8r	.	.	8r	.	.	4B-/	4b-\
.	.	.	.	16ff\	.	16ff\	.	.	.	.	.	.	.	.	.	.	.	.	.	.	.
8B-\J	.	.	.	16dd\	.	16dd\	.	8B-\	fe-	.	8d\	fe-	.	8b-\	fe-	.	8ff\	fe-	.	.	.
.	.	.	.	16b-\JJ	.	16b-\JJ	.	.	.	.	.	.	.	.	.	.	.	.	.	.	.
!	!	!	!	!LO:LB:g=original	!	!	!	!	!	!	!LO:LB:g=original	!	!	!LO:LB:g=original	!	!	!	!	!	!	!LO:LB:g=original
=23	=23	=23	=23	=23	=23	=23	=23	=23	=23	=23	=23	=23	=23	=23	=23	=23	=23	=23	=23	=23	=23
8F\L	7	.	1ryy	16ee-\LL	.	16ee-\LL	.	8F\	-li-	.	8c\	-li-	.	8a\	-li-	.	8ee-\	-li-	.	8f/L	8cc\L
.	.	.	.	16cc\J	.	16cc\J	.	.	.	.	.	.	.	.	.	.	.	.	.	.	.
8B-\	.	.	.	8dd\J	.	8dd\J	.	8B-\	-cem	.	8B-\	-cem	.	8f\	-cem	.	8dd\	-cem	.	8d/	8b-\
8BB-\	.	.	.	16dd\LL	.	16bb-\LL	.	8D\	per	.	8B-\	per	.	8f\	per	.	8dd\	per	.	8B-/	8b-\
.	.	.	.	16b-\	.	16dd\	.	.	.	.	.	.	.	.	.	.	.	.	.	.	.
8BB-\J	6	.	.	16dd\	.	16bb-\	.	8D\	fe-	.	8B-\	fe-	.	8f\	fe-	.	8dd\	fe-	.	8B-/J	8b-\J
.	.	.	.	16dd\JJ	.	16bb-\JJ	.	.	.	.	.	.	.	.	.	.	.	.	.	.	.
!LO:LB:g=original	!	!	!	!	!	!	!	!	!	!	!	!	!	!	!	!	!	!	!	!	!
8E-\L	7 5	.	.	16dd\LL	.	16bb-\LL	.	4E-\	-li-	.	4B-\	-li-	.	4g\	-li-	.	4dd\	-li-	.	4B-/	4b-\
.	.	.	.	16b-\	.	16dd\	.	.	.	.	.	.	.	.	.	.	.	.	.	.	.
8E-\	.	.	.	16dd\	.	16bb-\	.	.	.	.	.	.	.	.	.	.	.	.	.	.	.
.	.	.	.	16dd\JJ	.	16bb-\JJ	.	.	.	.	.	.	.	.	.	.	.	.	.	.	.
8En\	_ _	.	.	16dd\LL	.	16bb-\LL	.	4En\	-cem	.	4B-\	-cem	.	4g\	-cem	.	4dd\	-cem	.	8r	8r
.	x	.	.	16b-\	.	16dd\	.	.	.	.	.	.	.	.	.	.	.	.	.	.	.
8E\J	.	.	.	16dd\	.	16bb-\	.	.	.	.	.	.	.	.	.	.	.	.	.	8b-\	8dd\
.	.	.	.	16dd\JJ	.	16bb-\JJ	.	.	.	.	.	.	.	.	.	.	.	.	.	.	.
=24	=24	=24	=24	=24	=24	=24	=24	=24	=24	=24	=24	=24	=24	=24	=24	=24	=24	=24	=24	=24	=24
!LO:TX:t=P:problem=mixed beam	!	!	!	!	!	!	!	!	!	!	!	!	!	!	!	!	!	!	!	!LO:TX:t=P:problem=mixed beam	!
8F\L	6 4	.	1ryy	8dd\L	.	8bb-\L	.	8F\	mor-	.	8B-\	mor-	.	8f\	mor-	.	8dd\	mor-	.	8b-\L	8dd\L
8FF/	5 3	.	.	8cc\J	.	8aa\J	.	8F\	-tem	.	8A\	-tem	.	8f\	-tem	.	8cc\	-tem	.	8f/J	8cc\J
8D\	6	.	.	16f/KL	.	16ff\LL	.	8r	.	.	8r	.	.	8r	.	.	8r	.	.	4r	4r
.	.	.	.	8f/	.	16bb-\	.	.	.	.	.	.	.	.	.	.	.	.	.	.	.
8B-\J	.	.	.	.	.	16ddd\	.	8B-\	nos	.	8d\	nos	.	8f\	nos	.	8dd\	nos	.	.	.
.	.	.	.	16f/Jk	.	16ff\JJ	.	.	.	.	.	.	.	.	.	.	.	.	.	.	.
!LO:TX:t=P:problem=mixed beam	!	!	!	!	!	!	!	!LO:LB:g=original	!	!	!	!	!	!	!	!	!	!	!	!	!
8c\L	6	.	.	16f/KL	.	24ee-\LL	.	8.c\	glo-	.	8.c\	glo-	.	8f\	glo-	.	8.ee-\	glo-	.	4r	4r
.	.	.	.	.	.	24dd\	.	.	.	.	.	.	.	.	.	.	.	.	.	.	.
.	.	.	.	8f/	.	.	.	.	.	.	.	.	.	.	.	.	.	.	.	.	.
.	.	.	.	.	.	24cc\	.	.	.	.	.	.	.	.	.	.	.	.	.	.	.
8C/J	.	.	.	.	.	16cc'\	.	.	.	.	.	.	.	8f\	-ri-	.	.	.	.	.	.
.	.	.	.	16f/Jk	.	16cc'\JJ	.	16c\	-ri-	.	16c\	-ri-	.	.	.	.	16ee-\	-ri-	.	.	.
8F\L	7	.	.	16f/KL	.	16ee-\LL	.	8F\	-ae	.	8e-\	-ae	.	8a\	-ae	.	8cc\	-ae	.	4f/	4cc\
.	.	.	.	8f/	.	16aa\	.	.	.	.	.	.	.	.	.	.	.	.	.	.	.
8A\J	.	.	.	.	.	16ccc\	.	8A\	hae-	.	8e-\	hae-	.	8a\	hae-	.	8cc\	hae-	.	.	.
.	.	.	.	16f/Jk	.	16ee-\JJ	.	.	.	.	.	.	.	.	.	.	.	.	.	.	.
!	!	!	!	!	!	!	!	!	!	!	!	!	!	!LO:LB:g=original	!	!	!	!	!	!	!
=25	=25	=25	=25	=25	=25	=25	=25	=25	=25	=25	=25	=25	=25	=25	=25	=25	=25	=25	=25	=25	=25
8B-\L	.	.	1ryy	16f/KL	.	24dd\LL	.	8B-\	-re-	.	8d\	-re-	.	8f\	-re-	.	8dd\	-re-	.	4b-\	4dd\
.	.	.	.	.	.	24ee-\	.	.	.	.	.	.	.	.	.	.	.	.	.	.	.
.	.	.	.	8f/	.	.	.	.	.	.	.	.	.	.	.	.	.	.	.	.	.
.	.	.	.	.	.	24ff\	.	.	.	.	.	.	.	.	.	.	.	.	.	.	.
8d\	.	.	.	.	.	16ff\	.	8d\	-des	.	8B-\	-des	.	8f\	-des	.	8ff\	-des	.	.	.
.	.	.	.	8f/	.	16ff\JJ	.	.	.	.	.	.	.	.	.	.	.	.	.	.	.
!	!	!	!	!	!	!	!	!	!	!	!LO:LB:g=original	!	!	!	!	!	!LO:LB:g=original	!	!	!	!
8d\	.	.	.	.	.	16ddd\LL	.	8r	.	.	8r	.	.	8r	.	.	8r	.	.	4r	4r
.	.	.	.	8f/	.	16ff\	.	.	.	.	.	.	.	.	.	.	.	.	.	.	.
8B-\J	.	.	.	.	.	16ddd\	.	8B-\	nos	.	8d\	nos	.	8f\	nos	.	8dd\	nos	.	.	.
.	.	.	.	16f/Jk	.	16ff\JJ	.	.	.	.	.	.	.	.	.	.	.	.	.	.	.
!LO:TX:t=P:problem=mixed beam	!	!	!	!	!	!LO:LB:g=original	!	!	!	!	!	!	!	!	!	!	!	!	!	!	!
8c\L	6	.	.	16f/KL	.	24ee-\LL	.	8.c\	glo-	.	8.c\	glo-	.	8f\	glo-	.	8.ee-\	glo-	.	4r	4r
.	.	.	.	.	.	24dd\	.	.	.	.	.	.	.	.	.	.	.	.	.	.	.
.	.	.	.	8f/	.	.	.	.	.	.	.	.	.	.	.	.	.	.	.	.	.
.	.	.	.	.	.	24cc\	.	.	.	.	.	.	.	.	.	.	.	.	.	.	.
8C/	.	.	.	.	.	16cc'\	.	.	.	.	.	.	.	8f\	-ri-	.	.	.	.	.	.
.	.	.	.	8f/	.	16cc\JJ	.	16c\	-ri-	.	16c\	-ri-	.	.	.	.	16ee-\	-ri-	.	.	.
8A\	6 5	.	.	.	.	16ee-\LL	.	8F\	-ae	.	8e-\	-ae	.	8f\	-ae	.	8cc\	-ae	.	4f/	4cc\
.	.	.	.	8f/	.	16aa\	.	.	.	.	.	.	.	.	.	.	.	.	.	.	.
8F\J	.	.	.	.	.	16ccc\	.	8A\	hae-	.	8e-\	hae-	.	8f\	hae-	.	8cc\	hae-	.	.	.
.	.	.	.	16f/Jk	.	16ee-\JJ	.	.	.	.	.	.	.	.	.	.	.	.	.	.	.
!	!	!	!	!LO:LB:g=original	!	!	!	!	!	!	!	!	!	!	!	!	!	!	!	!	!
=26	=26	=26	=26	=26	=26	=26	=26	=26	=26	=26	=26	=26	=26	=26	=26	=26	=26	=26	=26	=26	=26
!LO:TX:t=P:problem=mixed beam	!	!	!	!	!	!	!	!	!	!	!	!	!	!	!	!	!	!	!	!	!
8B-\L	.	.	1ryy	16f\LL	.	16dd\LL	.	4B-\	-re-	.	4d\	-re-	.	4f\	-re-	.	4dd\	-re-	.	4b-\	4dd\
.	.	.	.	16b-\	.	16b-\	.	.	.	.	.	.	.	.	.	.	.	.	.	.	.
8BB-/	.	.	.	16bb-\	.	16bb-\	.	.	.	.	.	.	.	.	.	.	.	.	.	.	.
.	.	.	.	16bb-\JJ	.	16bb-\JJ	.	.	.	.	.	.	.	.	.	.	.	.	.	.	.
8G\	6	.	.	16ee-\LL	.	16ee-\LL	.	8G\L	-des	.	4B-\	-des	.	4g\	-des	.	4ee-\	-des	.	8B-/L	8b-\L
.	.	.	.	16b-\	.	16b-\	.	.	.	.	.	.	.	.	.	.	.	.	.	.	.
8E-\J	.	.	.	16bb-\	.	16bb-\	.	8E-\J	.	.	.	.	.	.	.	.	.	.	.	8B-/J	8b-\J
.	.	.	.	16bb-\JJ	.	16bb-\JJ	.	.	.	.	.	.	.	.	.	.	.	.	.	.	.
!	!	!	!	!	!	!	!	!LO:LB:g=original	!	!	!	!	!	!	!	!	!	!	!	!	!
8D\L	6	.	.	16ff\LL	.	16ff\LL	.	8.D\	glo-	.	8.B-\	glo-	.	8.f\	glo-	.	8.ff\	glo-	.	4B-/	4b-\
.	.	.	.	16b-\	.	16dd\	.	.	.	.	.	.	.	.	.	.	.	.	.	.	.
8D\	.	.	.	16bb-\	.	16bb-\	.	.	.	.	.	.	.	.	.	.	.	.	.	.	.
.	.	.	.	16bb-\JJ	.	16bb-\JJ	.	16D\	-ri-	.	16B-\	-ri-	.	16f\	-ri-	.	16ff\	-ri-	.	.	.
8E-\	.	.	.	16gg\LL	.	16gg\LL	.	8E-\	-ae	.	8B-\	-ae	.	8e-\	-ae	.	8gg\	-ae	.	4B-/	4b-\
.	.	.	.	16bb-\	.	16bb-\	.	.	.	.	.	.	.	.	.	.	.	.	.	.	.
8E-\J	.	.	.	16gg\	.	16gg\	.	8E-\	hae-	.	8c\	hae-	.	8g\	hae-	.	8ee-\	hae-	.	.	.
.	.	.	.	16ee-\JJ	.	16ee-\JJ	.	.	.	.	.	.	.	.	.	.	.	.	.	.	.
!	!	!	!	!	!	!	!	!	!	!	!	!	!	!	!	!	!	!	!	!LO:LB:g=original	!
=27	=27	=27	=27	=27	=27	=27	=27	=27	=27	=27	=27	=27	=27	=27	=27	=27	=27	=27	=27	=27	=27
8F\L	6 4	.	1ryy	16dd\LL	.	16dd\LL	.	2F\	-re-	.	(4B-\	-re-	.	2f\	-re-	.	(4dd\	-re-	.	8r	8r
.	.	.	.	16ff\	.	16ff\	.	.	.	.	.	.	.	.	.	.	.	.	.	.	.
!	!	!	!	!	!	!	!	!	!	!	!	!	!	!	!	!	!	!	!	!LO:TX:t=P:problem=mixed beam	!
8F\	.	.	.	16bb-\	.	16bb-\	.	.	.	.	.	.	.	.	.	.	.	.	.	8b-\L	8dd\L
.	.	.	.	16dd\JJ	.	16dd\JJ	.	.	.	.	.	.	.	.	.	.	.	.	.	.	.
8F\	5 3	.	.	16cc\LL	.	16cc\LL	.	.	.	.	4A\)	.	.	.	.	.	4cc\)	.	.	8f/	8cc\
.	.	.	.	16ff\	.	16ff\	.	.	.	.	.	.	.	.	.	.	.	.	.	.	.
8F\J	.	.	.	16aa\	.	16aa\	.	.	.	.	.	.	.	.	.	.	.	.	.	8f/J	8cc\J
.	.	.	.	16cc\JJ	.	16cc\JJ	.	.	.	.	.	.	.	.	.	.	.	.	.	.	.
!LO:TX:t=P:problem=mixed beam	!	!	!	!	!	!	!	!	!	!	!	!	!	!LO:LB:g=original	!	!	!	!	!	!	!LO:LB:g=original
8BB-/L	.	.	.	16dd\LL	.	16dd\LL	.	4BB-/	-des	.	4B-\	-des	.	4f\	-des	.	4dd\	-des	.	8d/L	4b-\
.	.	.	.	16b-\	.	16b-\	.	.	.	.	.	.	.	.	.	.	.	.	.	.	.
8B-\	.	.	.	16bb-\	.	16bb-\	.	.	.	.	.	.	.	.	.	.	.	.	.	8B-/J	.
.	.	.	.	16bb-\JJ	.	16bb-\JJ	.	.	.	.	.	.	.	.	.	.	.	.	.	.	.
8G\	6	.	.	16ee-\LL	.	16ee-\LL	.	8G\L	nos	.	4B-\	nos	.	4g\	nos	.	4ee-\	nos	.	4B-/	4b-\
.	.	.	.	16b-\	.	16b-\	.	.	.	.	.	.	.	.	.	.	.	.	.	.	.
8E-\J	.	.	.	16bb-\	.	16bb-\	.	8E-\J	.	.	.	.	.	.	.	.	.	.	.	.	.
.	.	.	.	16bb-\JJ	.	16bb-\JJ	.	.	.	.	.	.	.	.	.	.	.	.	.	.	.
!LO:LB:g=original	!	!	!	!	!	!	!	!	!	!	!LO:LB:g=original	!	!	!	!	!	!LO:LB:g=original	!	!	!	!
=28	=28	=28	=28	=28	=28	=28	=28	=28	=28	=28	=28	=28	=28	=28	=28	=28	=28	=28	=28	=28	=28
8D\L	6	.	1ryy	16ff\LL	.	16ff\LL	.	8.D\	glo-	.	8.B-\	glo-	.	8.f\	glo-	.	8.ff\	glo-	.	4B-/	4b-\
.	.	.	.	16dd\	.	16b-\	.	.	.	.	.	.	.	.	.	.	.	.	.	.	.
8D\	.	.	.	16bb-\	.	16bb-\	.	.	.	.	.	.	.	.	.	.	.	.	.	.	.
.	.	.	.	16bb-\JJ	.	16bb-\JJ	.	16D\	-ri-	.	16B-\	-ri-	.	16f\	-ri-	.	16ff\	-ri-	.	.	.
!	!	!	!	!	!	!	!	!	!	!	!	!	!	!	!	!	!	!	!	!LO:TX:t=P:problem=mixed beam	!
8E-\	.	.	.	16gg\LL	.	16gg\LL	.	8E-\	-ae	.	8B-\	-ae	.	8e-\	-ae	.	8gg\	-ae	.	8d/L	8b-\L
.	.	.	.	16bb-\	.	16bb-\	.	.	.	.	.	.	.	.	.	.	.	.	.	.	.
8E-\J	6	.	.	16gg\	.	16gg\	.	8E-\	hae-	.	8c\	hae-	.	8g\	hae-	.	8ee-\	hae-	.	8b-\J	8cc\J
.	.	.	.	16ee-\JJ	.	16ee-\JJ	.	.	.	.	.	.	.	.	.	.	.	.	.	.	.
!LO:TX:t=P:problem=mixed beam	!	!	!	!	!	!LO:LB:g=original	!	!	!	!	!	!	!	!	!	!	!	!	!	!	!
*	*	*	*	*tremolo	*	*tremolo	*	*	*	*	*	*	*	*	*	*	*	*	*	*	*
8F\L	6 4	.	.	16dd\LL 16bb-	.	16dd\LL 16bb-	.	2F\	-re-	.	4B-\	-re-	.	2f\	-re-	.	(4dd\	-re-	.	4b-\	4dd\
.	.	.	.	16dd\ 16bb-	.	16dd\ 16bb-	.	.	.	.	.	.	.	.	.	.	.	.	.	.	.
8F\	.	.	.	16dd\ 16bb-	.	16dd\ 16bb-	.	.	.	.	.	.	.	.	.	.	.	.	.	.	.
.	.	.	.	16dd\JJ 16bb-	.	16dd\JJ 16bb-	.	.	.	.	.	.	.	.	.	.	.	.	.	.	.
8FF/	5 3	.	.	16cc\LL 16aa	.	16cc\LL 16aa	.	.	.	.	4A\	.	.	.	.	.	4cc\)	.	.	4f/	4cc\
.	.	.	.	16cc\ 16aa	.	16cc\ 16aa	.	.	.	.	.	.	.	.	.	.	.	.	.	.	.
8FF/J	.	.	.	16cc\ 16aa	.	16cc\ 16aa	.	.	.	.	.	.	.	.	.	.	.	.	.	.	.
.	.	.	.	16cc\JJ 16aa	.	16cc\JJ 16aa	.	.	.	.	.	.	.	.	.	.	.	.	.	.	.
*	*	*	*	*Xtremolo	*	*Xtremolo	*	*	*	*	*	*	*	*	*	*	*	*	*	*	*
!	!	!	!	!LO:LB:g=original	!	!	!	!LO:LB:g=original	!	!	!	!	!	!	!	!	!	!	!	!	!
=29	=29	=29	=29	=29	=29	=29	=29	=29	=29	=29	=29	=29	=29	=29	=29	=29	=29	=29	=29	=29	=29
!LO:TX:t=P:problem=mixed beam	!	!	!	!	!	!	!	!	!	!	!	!	!	!	!	!	!	!	!	!	!
8BB-/L	.	.	1ryy	4dd\ 4bb-	.	4dd\ 4bb-	.	4BB-/	-des,	.	4B-\	-des,	.	4f\	-des,	.	4b-\	-des.	.	4d/	4b-\
8B-\J	.	.	.	.	.	.	.	.	.	.	.	.	.	.	.	.	.	.	.	.	.
8r	.	.	.	16ddd\LL	.	16ddd\LL	.	4r	.	.	4r	.	.	4r	.	.	4r	.	.	4r	4r
.	.	.	.	16bb-\	.	16bb-\	.	.	.	.	.	.	.	.	.	.	.	.	.	.	.
8B-\	.	.	.	16ff\	.	16ff\	.	.	.	.	.	.	.	.	.	.	.	.	.	.	.
.	.	.	.	16dd\JJ	.	16dd\JJ	.	.	.	.	.	.	.	.	.	.	.	.	.	.	.
!LO:TX:t=P:problem=mixed beam	!	!	!	!	!	!	!	!	!	!	!	!	!	!	!	!	!	!	!	!	!
8c\L	6	.	.	24ee-\LL	.	24ee-\LL	.	2rBB	.	.	2r	.	.	2r	.	.	2r	.	.	4r	4r
.	.	.	.	24dd\	.	24dd\	.	.	.	.	.	.	.	.	.	.	.	.	.	.	.
.	.	.	.	24cc\	.	24cc\	.	.	.	.	.	.	.	.	.	.	.	.	.	.	.
8C/J	.	.	.	16cc\	.	16cc'\	.	.	.	.	.	.	.	.	.	.	.	.	.	.	.
.	.	.	.	16cc\JJ	.	16cc'\JJ	.	.	.	.	.	.	.	.	.	.	.	.	.	.	.
8F\L	7	.	.	16ccc\LL	.	16ccc\LL	.	.	.	.	.	.	.	.	.	.	.	.	.	4f/	4cc\
.	.	.	.	16aa\	.	16aa\	.	.	.	.	.	.	.	.	.	.	.	.	.	.	.
8A\J	.	.	.	16ee-\	.	16ee-\	.	.	.	.	.	.	.	.	.	.	.	.	.	.	.
.	.	.	.	16cc\JJ	.	16cc\JJ	.	.	.	.	.	.	.	.	.	.	.	.	.	.	.
=30	=30	=30	=30	=30	=30	=30	=30	=30	=30	=30	=30	=30	=30	=30	=30	=30	=30	=30	=30	=30	=30
8B-\L	.	.	1ryy	16dd\LL	.	16dd\LL	.	0r	.	.	0r	.	.	0r	.	.	1r	.	.	4b-\	4dd\
.	.	.	.	16ff\	.	16bb-\	.	.	.	.	.	.	.	.	.	.	.	.	.	.	.
8B-\	.	.	.	16ddd\	.	16ddd\	.	.	.	.	.	.	.	.	.	.	.	.	.	.	.
.	.	.	.	16bb-\JJ	.	16bb-\JJ	.	.	.	.	.	.	.	.	.	.	.	.	.	.	.
8c\	6 x	.	.	16aa\LL	.	16aa\LL	.	.	.	.	.	.	.	.	.	.	.	.	.	8r	8r
.	.	.	.	16ccc\	.	16ccc\	.	.	.	.	.	.	.	.	.	.	.	.	.	.	.
8A\J	6 5	.	.	16cc\	.	16cc\	.	.	.	.	.	.	.	.	.	.	.	.	.	8cc\	8ee-\
.	.	.	.	16ee-\JJ	.	16ee-\JJ	.	.	.	.	.	.	.	.	.	.	.	.	.	.	.
8B-\L	.	.	.	16dd\LL	.	16dd\LL	.	.	.	.	.	.	.	.	.	.	.	.	.	8b-\	4dd\
.	.	.	.	16bb-\	.	16bb-\	.	.	.	.	.	.	.	.	.	.	.	.	.	.	.
8D\	.	.	.	16b-\	.	16b-\	.	.	.	.	.	.	.	.	.	.	.	.	.	4b-\	.
.	.	.	.	16dd\JJ	.	16dd\JJ	.	.	.	.	.	.	.	.	.	.	.	.	.	.	.
!	!	!	!	!LO:TX:t=P:problem=mixed beam	!	!	!	!	!	!	!	!	!	!	!	!	!	!	!	!	!
8E-\	6 5	.	.	16cc\LL	.	16cc\LL	.	.	.	.	.	.	.	.	.	.	.	.	.	.	4cc\
.	.	.	.	16gg\	.	16gg\	.	.	.	.	.	.	.	.	.	.	.	.	.	.	.
8F\J	.	.	.	16ff\	.	16ff\	.	.	.	.	.	.	.	.	.	.	.	.	.	8f\	.
.	.	.	.	16a/JJ	.	16a\JJ	.	.	.	.	.	.	.	.	.	.	.	.	.	.	.
!	!	!	!	!	!	!	!	!	!	!	!	!	!	!	!	!	!	!	!	!LO:LB:g=original	!
=31	=31	=31	=31	=31	=31	=31	=31	=31	=31	=31	=31	=31	=31	=31	=31	=31	=31	=31	=31	=31	=31
16BB-\LL	.	.	1ryy	4d/ 4b-	.	4d/ 4b-	.	.	.	.	.	.	.	.	.	.	1r	.	.	4d/	4b-\
16D\	.	.	.	.	.	.	.	.	.	.	.	.	.	.	.	.	.	.	.	.	.
16F\	.	.	.	.	.	.	.	.	.	.	.	.	.	.	.	.	.	.	.	.	.
16B-\JJ	.	.	.	.	.	.	.	.	.	.	.	.	.	.	.	.	.	.	.	.	.
16BB-\LL	.	.	.	4f\ 4dd 4bb-	.	4d\ 4b- 4bb-	.	.	.	.	.	.	.	.	.	.	.	.	.	4B-/	4b-\
16D\	.	.	.	.	.	.	.	.	.	.	.	.	.	.	.	.	.	.	.	.	.
16F\	.	.	.	.	.	.	.	.	.	.	.	.	.	.	.	.	.	.	.	.	.
16B-\JJ	.	.	.	.	.	.	.	.	.	.	.	.	.	.	.	.	.	.	.	.	.
4BB-/	.	.	.	4f\ 4dd 4bb-	.	4d\ 4b- 4bb-	.	.	.	.	.	.	.	.	.	.	.	.	.	4B-/	4b-\
4r	.	.	.	4r	.	4r	.	.	.	.	.	.	.	.	.	.	.	.	.	4r	4r
==	==	==	==	==	==	==	==	==	==	==	==	==	==	==	==	==	==	==	==	==	==
*-	*-	*-	*-	*-	*-	*-	*-	*-	*-	*-	*-	*-	*-	*-	*-	*-	*-	*-	*-	*-	*-
!!!system-decoration: [(g1)][(g2)][g3)][(g4)]
!!!RDF**kern: >= above
!!!RDF**kern: <= below
!!!RDF**kern: | = vertical stroke
!!!ENC: Anna Matuszewska
!!!END: 2021-01-05
!!!ENC: Andrzej Kubiczek
!!!END: 2021-01-02
